!!!COM: Bach, Johann Sebastian
!!!OPR: Joh. Seb. Bachs vierstimmige Choralgesänge
!!!XEN: Four-part Chorales
!!!OTL: 54. Es ist gewisslich an der Zeit
!!!SCT: BWV 307
!!!SCA: Thematisch-systematisches Verzeichnis der musikalischen Werke Johann Sebastian Bach: Bach-Werke-Verzeichnis (Schmieder)
!!!YOR: Bach Gesellschaft Edition xxxix
!!!ENC: Steven Rasmussen
!!!CDT: 1685/3//-1750/7/28/
!!!OCY: Deutschland
!!!YEC: Copyright (c) 1994, 2000 Center for Computer Assisted Research in the Humanities
!!!YEM: Rights to all derivative editions reserved
!!!YEN: United States of America
**kern	**kern	**kern	**kern	**silbe
*I:[BASSO]	*I:[TENORE]	*I:[ALTO]	*I:[SOPRANO]	*I:[SOPRANO]
*>[A,A,B]	*>[A,A,B]	*>[A,A,B]	*>[A,A,B]	*
*>A	*>A	*>A	*>A	*
*clefF4	*clefGv2	*clefG2	*clefG2	*
*k[b-e-]	*k[b-e-]	*k[b-e-]	*k[b-e-]	*
*B-:	*B-:	*B-:	*B-:	*
*M4/4	*M4/4	*M4/4	*M4/4	*
8BB-L	8dL	8fL	4b-	Esin
8CJ	8cJ	8e-J	.	.
=1	=1	=1	=1	=1
4D	4B-	4f	8b-L	istsei-
.	.	.	8ccJ	.
8CL	4f	4b-	4dd	ge--ner
8BB-J	.	.	.	.
4F	8fL	4a	4cc	-wiss-gro-
.	8e-J	.	.	.
8GL	4d	4g	4b-	-lich-ssen
8FJ	.	.	.	.
=2	=2	=2	=2	=2
4E-	8cL	4g	4cc	anHerr-
.	8B-J	.	.	.
4F	8B-L	4f	4cc	der-lich-
.	8AJ	.	.	.
4BB-;	4B-;	4f;	4dd;	Zeit,-keit,
4BB-	8dL	4f	8b-L	dasszu
.	8e-J	.	8ccJ	.
=3	=3	=3	=3	=3
4B-	4f	4b-	4dd	Got-rich-
8AL	4g	4b-	4ee-	-tes-ten
8GJ	.	.	.	.
4A	4f	4cc	8ffL	SohnBÃ¶s'
.	.	.	8ee-J	.
4B-	4f	4b-	4dd	wirdund
=4	=4	=4	=4	=4
4E-	4g	4b-	2cc	kom-from-
4F	8fL	4a	.	.
.	8e-J	.	.	.
4BB-;	4d;	4f;	4b-;	-men-men.
=:|!	=:|!	=:|!	=:|!	=:|!
*>B	*>B	*>B	*>B	*
8BB-L	4B-	4f	4dd	Dann
8CJ	.	.	.	.
=5	=5	=5	=5	=5
8DL	4B-	4f	4dd	wird
8E-J	.	.	.	.
4F	4A	8fL	4cc	das
.	.	8e-J	.	.
4G	4B-	8dL	4b-	La-
.	.	8gJ	.	.
4A	4c	8gL	4a	-chen
.	.	8f#J	.	.
=6	=6	=6	=6	=6
4G	8dL	8gL	8b-L	wer-
.	8e-J	8aJ	8ccJ	.
8DL	4f	4b-	4dd	-den
8E-J	.	.	.	.
4F;	4f;	4a;	4cc;	teu'r,
4F#	4d	4a	4cc	wann
=7	=7	=7	=7	=7
4G	4d	8aL	4b-	Al-
.	.	8gJ	.	.
4D	4d	8gL	4a	-les
.	.	8f#J	.	.
8GL	4d	4g	4b-	soll
8AJ	.	.	.	.
8B-L	8dL	4d	4f	ver-
8AJ	8cJ	.	.	.
=8	=8	=8	=8	=8
8GL	8B-L	4d	4b-	-gehn
8FJ	8AJ	.	.	.
4E-	4G	4g	4cc	im
4D;	4A;	4f#;	4dd;	Feu'r,
4GG	8GL	4d	8b-L	wie
.	8AJ	.	8ccJ	.
=9	=9	=9	=9	=9
4G	4B-	4g	4dd	Pe-
8FL	4B-	4g	4ee-	-trus
8E-J	.	.	.	.
8DL	4B-	4f	8ffL	da-
8CJ	.	.	8ee-J	.
4BB-	4B-	4f	4dd	-von
=10	=10	=10	=10	=10
4E-	4B-	4g	2cc	zeu-
4F	4A	8fL	.	.
.	.	8e-J	.	.
4BB-;	4F;	4d;	4b-;	-get.
==|!	==|!	==|!	==|!	==|!
*-	*-	*-	*-	*-
!!!RWG: Key is interpreted using the Humdrum key tool.
!!!URL-pdf: https://s9.imslp.org/files/imglnks/usimg/6/6b/IMSLP24489-PMLP09471-CCARH_Bach_Chorales.pdf#page=37 Musedata edition
!!!URL-pdf: https://s9.imslp.org/files/imglnks/usimg/7/7a/IMSLP04155-Bach_-_BGA_253-438.pdf#page=29 	Bach-Gesellschaft Ausgabe, Band 39 (pp.175-276) Leipzig: Breitkopf und Härtel, 1892. Plate B.W. XXXIX.
!!!END: 1994/05/25
!!!EMD: Converted from MuseData to Humdrum Dec 19, 2000, by Andreas Kornstaedt using muse2kern.
!!!EED: Craig Stuart Sapp
!!!EEV: 2024/03/31
!!!filter-keyboard: satb2gs
